X:1
T: Rickett's Hornpipe
C: R-21
C: American
M: C|
Z:
R: reel
K: D
(3ABc| "D"dcdA FAdf| "A"edcB A2g2| "D"fgaf "G"gfed| "A"edcB Agfe|
       "D"dcdA FAdf| "A"edcB A2g2| "D"fafd "A"egec| "D"d2f2 d2:|
|:\
fg| "D"afaf d2ga| "G"bgbg "A"e2fg| "D"afba "G"gfed| "A"edcB Agfe|
    "D"dcdA FAdf| "A"edcB A2g2| "D"fafd "A"egec| "D"d2f2 d2:|
%
